X: 123
T: No_208_Song_for_Success_in_Hunting_(a).krn
N: Derived from No_208_Song_for_Success_in_Hunting_(a).krn
%%abc-version 2.0
%%abcx-abcm2ps-target-version 5.9.1 (29 Sep 2008)
%%abc-creator hum2abc beta
%%abcx-conversion-date 2019/03/15 08:38:45
%%humdrum-veritas 3051320492
%%humdrum-veritas-data 2774644205
%%linebreak <none>
%%barnumbers 0
L: 1/16
M: 2/4
K: D clef=bass
[K:clef=bass][M:2/4]z4z3 A, | 
G,2(3G,G,G,G,4 | 
D,2D,D, D,3A, | 
G,2(3G,G,G, D,2 z D, ||  
[M:3/8]D,2D,2-D,G, ||  
[M:2/4](3:2:5F,F,-F,F,F,2 D,2 z D, ||  
[M:3/8]D,2D,2-D,A, ||  
[M:2/4]A,2(3:2:2G,F,2G,4 | 
D,2D,D, D,3G, | 
(3:2:6F,F,-F,F,F,F, D,2 z D, ||  
[M:3/8]D,2D,2-D,G, ||  
[M:2/4](3:2:5F,F,-F,F,F,2 D,2 z D, ||  
[M:3/8]D,2D,2-D,F, ||  
[M:2/4](3:2:6F,F,-F,F,F,F,F,4 | 
D,2D,D, D,3G, | 
F,2(3:2:2F,F,2 D,2 z D, ||  
[M:3/8]D,2D,2-D,G, ||  
[M:2/4](3:2:6F,F,-F,F,F,F, D,2 z D, ||  
[M:3/4]D,2D,2-D,4F,2D,2 | 
F,8-(F,2A,,2) | 
B,,B,,A,,2 B,,2A,,2z4 |]  



